src/images/landing/logos/1.svg

<svg width="160" height="50" viewBox="0 0 160 50" fill="none" xmlns="http://www.w3.org/2000/svg">
<g clip-path="url(#clip0)">
<path d="M101.989 3.11379H101.917V3.03101H58.0412V3.11379H57.9895V46.9689H58.0516V47.031H101.927V46.9689H101.989V3.11379ZM99.1748 44.2267H60.7938V5.83533H99.1851V44.2267H99.1748Z" fill="white"/>
<path d="M65.8848 25.2484L66.2573 19.5569H74.1736V21.5748H68.3994L68.2131 23.9238L68.3373 23.9445C68.9478 23.4064 69.2893 23.3133 70.3241 23.3133H71.7522C72.7973 23.3133 73.3458 23.4892 73.77 23.9135C74.3185 24.4619 74.5255 25.3208 74.5255 26.7592C74.5255 28.6632 74.3081 29.3255 73.7597 29.905C73.3872 30.2982 72.8077 30.5155 71.835 30.5155H68.4822C67.4784 30.5155 66.7954 30.3396 66.4126 29.9878C65.9159 29.4704 65.6882 28.7563 65.6882 26.9972L68.1407 26.9765C68.1614 27.8664 68.2856 28.2079 68.4097 28.3217C68.5339 28.4563 68.7512 28.508 69.2583 28.508H70.9657C71.39 28.508 71.5866 28.4459 71.7108 28.3321C71.8557 28.1872 71.9798 27.8664 71.9798 26.8937C71.9798 25.921 71.8557 25.6105 71.7108 25.4657C71.5866 25.3518 71.4003 25.2897 70.9657 25.2897H69.8688C69.1341 25.2897 68.6788 25.445 68.0062 25.8692L65.8848 25.2484Z" fill="white"/>
<path d="M81.014 19.5569C82.2248 19.5569 82.7939 19.7018 83.2699 20.1364C83.9115 20.7159 84.4392 21.8542 84.4392 25.031C84.4392 28.1872 83.9115 29.3358 83.2699 29.9257C82.8042 30.35 82.2248 30.5052 81.014 30.5052H78.4684C77.2577 30.5052 76.6989 30.35 76.2332 29.9257C75.5813 29.3358 75.0639 28.1872 75.0639 25.031C75.0639 21.8542 75.5813 20.7159 76.2332 20.1364C76.6989 19.7018 77.268 19.5569 78.4684 19.5569H81.014ZM79.0272 21.5748C78.4477 21.5748 78.2614 21.6369 78.1373 21.7507C77.9614 21.9059 77.713 22.3302 77.713 25.0414C77.713 27.7526 77.9614 28.1665 78.1373 28.3114C78.2614 28.4356 78.4477 28.4873 79.0272 28.4873H80.4552C81.0451 28.4873 81.221 28.4356 81.3659 28.3114C81.5418 28.1665 81.7901 27.7526 81.7901 25.0414C81.7901 22.3302 81.5418 21.9163 81.3659 21.7507C81.221 21.6369 81.0554 21.5748 80.4552 21.5748H79.0272Z" fill="white"/>
<path d="M90.8551 19.5569C92.0658 19.5569 92.6349 19.7018 93.111 20.1364C93.7525 20.7159 94.2803 21.8542 94.2803 25.031C94.2803 28.1872 93.7525 29.3358 93.111 29.9257C92.6453 30.35 92.0658 30.5052 90.8551 30.5052H88.3095C87.0987 30.5052 86.5399 30.35 86.0743 29.9257C85.4223 29.3358 84.9049 28.1872 84.9049 25.031C84.9049 21.8542 85.4223 20.7159 86.0743 20.1364C86.5399 19.7018 87.1091 19.5569 88.3095 19.5569H90.8551ZM88.8682 21.5748C88.2888 21.5748 88.1025 21.6369 87.9783 21.7507C87.8024 21.9059 87.554 22.3302 87.554 25.0414C87.554 27.7526 87.8024 28.1665 87.9783 28.3114C88.1025 28.4356 88.2888 28.4873 88.8682 28.4873H90.2859C90.8758 28.4873 91.0517 28.4356 91.1862 28.3114C91.3621 28.1665 91.6105 27.7526 91.6105 25.0414C91.6105 22.3302 91.3621 21.9163 91.1862 21.7507C91.0517 21.6369 90.8758 21.5748 90.2859 21.5748H88.8682Z" fill="white"/>
</g>
<defs>
<clipPath id="clip0">
<rect x="58" y="3" width="44" height="44" fill="white"/>
</clipPath>
</defs>
</svg>

<svg width="160" height="50" fill="none" xmlns="http://www.w3.org/2000/svg"><g clip-path="url(#clip0)" fill="#fff"><path d="M101.989 3.114h-.072V3.03H58.041v.083h-.051v43.855h.062v.062h43.875v-.062h.062V3.114zm-2.814 41.113H60.794V5.835h38.391v38.392h-.01z"/><path d="M65.885 25.248l.372-5.691h7.917v2.018h-5.775l-.186 2.349.124.02c.61-.538.952-.63 1.987-.63h1.428c1.045 0 1.594.175 2.018.6.549.548.755 1.407.755 2.845 0 1.904-.217 2.567-.765 3.146-.373.393-.952.61-1.925.61h-3.353c-1.004 0-1.687-.175-2.07-.527-.496-.518-.724-1.232-.724-2.99l2.453-.021c.02.89.145 1.23.269 1.345.124.134.341.186.848.186h1.708c.424 0 .62-.062.745-.176.145-.145.269-.466.269-1.438 0-.973-.124-1.284-.27-1.428-.123-.114-.31-.176-.744-.176h-1.097c-.735 0-1.19.155-1.863.58l-2.121-.622zM81.014 19.557c1.21 0 1.78.145 2.256.58.642.579 1.17 1.717 1.17 4.894 0 3.156-.528 4.305-1.17 4.895-.466.424-1.045.58-2.256.58h-2.546c-1.21 0-1.77-.156-2.235-.58-.652-.59-1.17-1.739-1.17-4.895 0-3.177.518-4.315 1.17-4.895.466-.434 1.035-.58 2.235-.58h2.546zm-1.987 2.018c-.58 0-.766.062-.89.176-.176.155-.424.58-.424 3.29 0 2.712.248 3.125.424 3.27.124.125.31.176.89.176h1.428c.59 0 .766-.051.91-.176.177-.145.425-.558.425-3.27 0-2.71-.248-3.125-.424-3.29-.145-.114-.31-.176-.91-.176h-1.429zM90.855 19.557c1.21 0 1.78.145 2.256.58.641.579 1.17 1.717 1.17 4.894 0 3.156-.529 4.305-1.17 4.895-.466.424-1.045.58-2.256.58H88.31c-1.21 0-1.77-.156-2.235-.58-.652-.59-1.17-1.739-1.17-4.895 0-3.177.518-4.315 1.17-4.895.466-.434 1.035-.58 2.236-.58h2.545zm-1.987 2.018c-.58 0-.765.062-.89.176-.176.155-.424.58-.424 3.29 0 2.712.248 3.125.424 3.27.125.125.31.176.89.176h1.418c.59 0 .766-.051.9-.176.176-.145.424-.558.424-3.27 0-2.71-.248-3.125-.424-3.29-.134-.114-.31-.176-.9-.176h-1.418z"/></g><defs><clipPath id="clip0"><path fill="#fff" d="M58 3h44v44H58z"/></clipPath></defs></svg>
